X:36
T:Dusty Windowsill
Z: id:dc-jig-30
M:6/8
L:1/8
K:A Dorian
A2B cBA|edB cBA|G3 EGG|DGG EGG|!
A2B cBA|e2d efg|age dBG|ABA A3:|!
a3 age|dBd g3|gfg gfe|dBA G3|!
EGG DGG|EGG A2B|ced BAG|ABA A3:|!
ABA gAf|ABA edB|GFG eGd|GFG edB|!
ABA gAf|ABA efg|age dBG|ABA A3:|!